src/assets/tokens/goARB.svg

<?xml version="1.0" encoding="UTF-8"?>
<svg width="18px" height="20px" viewBox="0 0 18 20" version="1.1" xmlns="http://www.w3.org/2000/svg" xmlns:xlink="http://www.w3.org/1999/xlink">
    <title>arbitrum-arb-logo (1)</title>
    <g id="Rewards" stroke="none" stroke-width="1" fill="none" fill-rule="evenodd">
        <g id="iMac-21.5&quot;" transform="translate(-606, -1012)" fill-rule="nonzero">
            <g id="Group" transform="translate(606, 1012)">
                <g transform="translate(9.5016, 6.9536)" fill="#D079FF" id="Path">
                    <path d="M1.00112816,4.57566053 L0.0182761733,7.23378703 C-0.00609205776,7.30584468 -0.00609205776,7.38590873 0.0182761733,7.46597278 L1.70780686,12.0376301 L3.66538809,10.9247398 L1.31791516,4.57566053 C1.26105596,4.43154524 1.05798736,4.43154524 1.00112816,4.57566053 Z"></path>
                    <path d="M2.97495487,0.108086469 C2.91809567,-0.0360288231 2.71502708,-0.0360288231 2.65816787,0.108086469 L1.67531588,2.76621297 C1.65094765,2.83827062 1.65094765,2.91833467 1.67531588,2.99839872 L4.44517148,10.4843875 L6.40275271,9.3714972 L2.97495487,0.116092874 L2.97495487,0.108086469 Z"></path>
                </g>
                <path d="M9,1.24099279 C9.04873646,1.24099279 9.09747292,1.2570056 9.13808664,1.28102482 L16.5947653,5.52441954 C16.6841155,5.57245797 16.732852,5.66853483 16.732852,5.76461169 L16.732852,14.2514011 C16.732852,14.347478 16.6759928,14.4435548 16.5947653,14.4915933 L9.13808664,18.734988 C9.09747292,18.7590072 9.04873646,18.77502 9,18.77502 C8.95126354,18.77502 8.90252708,18.7590072 8.86191336,18.734988 L1.40523466,14.4915933 C1.31588448,14.4435548 1.26714801,14.347478 1.26714801,14.2514011 L1.26714801,5.75660528 C1.26714801,5.66052842 1.32400722,5.56445156 1.40523466,5.51641313 L8.86191336,1.27301841 C8.90252708,1.2489992 8.95126354,1.23298639 9,1.23298639 L9,1.23298639 L9,1.24099279 Z M9,0 C8.73194946,0 8.47202166,0.064051241 8.22833935,0.200160128 L0.77166065,4.44355484 C0.292418773,4.71577262 0,5.21216974 0,5.75660528 L0,14.2433947 C0,14.7878303 0.292418773,15.2842274 0.77166065,15.5564452 L8.22833935,19.7998399 C8.46389892,19.9359488 8.73194946,20 9,20 C9.26805054,20 9.52797834,19.9359488 9.77166065,19.7998399 L17.2283394,15.5564452 C17.7075812,15.2842274 18,14.7878303 18,14.2433947 L18,5.75660528 C18,5.21216974 17.7075812,4.71577262 17.2283394,4.44355484 L9.76353791,0.200160128 C9.52797834,0.064051241 9.2599278,0 8.99187726,0 L8.99187726,0 L9,0 Z" id="Shape" fill="#D079FF"></path>
                <polygon id="Path" fill="#213147" points="4.06137184 17.4459568 4.75180505 15.5884708 6.13267148 16.7173739 4.84115523 17.886309"></polygon>
                <g transform="translate(2.1038, 5.1481)" fill="#D079FF" id="Path">
                    <path d="M6.26263538,0.00800640512 L4.3700361,0.00800640512 C4.23194946,0.00800640512 4.10198556,0.0960768615 4.0532491,0.224179343 L0,11.1769416 L1.95758123,12.2898319 L6.42509025,0.224179343 C6.46570397,0.112089672 6.38447653,0 6.27075812,0 L6.26263538,0.00800640512 Z"></path>
                    <path d="M9.5767148,0.00800640512 L7.68411552,0.00800640512 C7.54602888,0.00800640512 7.41606498,0.0960768615 7.36732852,0.224179343 L2.73736462,12.7301841 L4.69494585,13.8430745 L9.73104693,0.224179343 C9.77166065,0.112089672 9.69043321,0 9.5767148,0 L9.5767148,0.00800640512 Z"></path>
                </g>
            </g>
        </g>
    </g>
</svg>

<svg height="20" viewBox="0 0 18 20" width="18" xmlns="http://www.w3.org/2000/svg"><g fill="none"><g fill="#d079ff" transform="translate(9.5016 6.9536)"><path d="m1.00112816 4.57566053-.98285199 2.6581265c-.02436823.07205765-.02436823.1521217 0 .23218575l1.68953069 4.57165732 1.95758123-1.1128903-2.34747293-6.34907927c-.0568592-.14411529-.2599278-.14411529-.316787 0z"/><path d="m2.97495487.10808647c-.0568592-.14411529-.25992779-.14411529-.316787 0l-.98285199 2.6581265c-.02436823.07205765-.02436823.1521217 0 .23218575l2.7698556 7.48598878 1.95758123-1.1128903-3.42779784-9.25540433z"/></g><path d="m9 1.24099279c.04873646 0 .09747292.01601281.13808664.04003203l7.45667866 4.24339472c.0893502.04803843.1380867.14411529.1380867.24019215v8.48678941c0 .0960769-.0568592.1921537-.1380867.2401922l-7.45667866 4.2433947c-.04061372.0240192-.08935018.040032-.13808664.040032s-.09747292-.0160128-.13808664-.040032l-7.4566787-4.2433947c-.08935018-.0480385-.13808665-.1441153-.13808665-.2401922v-8.49479582c0-.09607686.05685921-.19215372.13808665-.24019215l7.4566787-4.24339472c.04061372-.02401921.08935018-.04003202.13808664-.04003202zm0-1.24099279c-.26805054 0-.52797834.06405124-.77166065.20016013l-7.4566787 4.24339471c-.47924188.27221778-.77166065.7686149-.77166065 1.31305044v8.48678942c0 .5444356.29241877 1.0408327.77166065 1.3130505l7.4566787 4.2433947c.23555957.1361089.50361011.2001601.77166065.2001601s.52797834-.0640512.77166065-.2001601l7.45667875-4.2433947c.4792418-.2722178.7716606-.7686149.7716606-1.3130505v-8.48678942c0-.54443554-.2924188-1.04083266-.7716606-1.31305044l-7.46480149-4.24339471c-.23555957-.13610889-.50361011-.20016013-.77166065-.20016013z" fill="#d079ff"/><path d="m4.06137184 17.4459568.69043321-1.857486 1.38086643 1.1289031-1.29151625 1.1689351z" fill="#213147"/><g fill="#d079ff" transform="translate(2.1038 5.1481)"><path d="m6.26263538.00800641h-1.89259928c-.13808664 0-.26805054.08807045-.316787.21617293l-4.0532491 10.95276226 1.95758123 1.1128903 4.46750902-12.06565256c.04061372-.11208967-.04061372-.22417934-.15433213-.22417934z"/><path d="m9.5767148.00800641h-1.89259928c-.13808664 0-.26805054.08807045-.316787.21617293l-4.6299639 12.50600476 1.95758123 1.1128904 5.03610108-13.61889516c.04061372-.11208967-.04061372-.22417934-.15433213-.22417934z"/></g></g></svg>
